Newaita-dark/apps/64/wps-office-wppmain.svg

<svg height="64" viewBox="0 0 64 64" width="64" xmlns="http://www.w3.org/2000/svg" xmlns:xlink="http://www.w3.org/1999/xlink"><linearGradient id="a" gradientUnits="userSpaceOnUse" x1="31.75304" x2="31.75304" y1="56.067872" y2="58.71396000006"><stop offset="0" stop-opacity=".27451"/><stop offset="1" stop-opacity="0"/></linearGradient><linearGradient id="b"><stop offset="0" stop-opacity=".313726"/><stop offset=".222222" stop-opacity=".27451"/><stop offset="1" stop-opacity="0"/></linearGradient><radialGradient id="c" cx="450.908936" cy="189.579361" gradientTransform="matrix(.00000035 -.156265 -.281277 -.0000002 97.64609 127.190665)" gradientUnits="userSpaceOnUse" r="21.166656" xlink:href="#b"/><radialGradient id="d" cx="450.908936" cy="189.579361" gradientTransform="matrix(-.00000035 .156265 .281277 .0000002 -35.463065 -15.054958)" gradientUnits="userSpaceOnUse" r="21.166656" xlink:href="#b"/><radialGradient id="e" cx="450.908936" cy="189.579361" gradientTransform="matrix(-.00000035 -.156265 .281277 -.0000002 -35.463065 127.190665)" gradientUnits="userSpaceOnUse" r="21.166656" xlink:href="#b"/><radialGradient id="f" cx="450.908936" cy="189.579361" gradientTransform="matrix(.00000035 .156265 -.281277 .0000002 97.646086 -15.054959)" gradientUnits="userSpaceOnUse" r="21.166656" xlink:href="#b"/><linearGradient id="g" gradientUnits="userSpaceOnUse" x1="31.091534" x2="31.091534" y1="56.06789790428" y2="5.79222438278"><stop offset="0" stop-color="#eee"/><stop offset="1" stop-color="#f5f5f5"/></linearGradient><linearGradient id="h"><stop offset="0" stop-color="#ff7043"/><stop offset="1" stop-color="#ff8a65"/></linearGradient><linearGradient id="i" gradientUnits="userSpaceOnUse" x1="31.091534" x2="31.091534" xlink:href="#h" y1="56.06789790428" y2="5.79222438278"/><linearGradient id="j" gradientTransform="matrix(.229136 -.132292 .132292 .229136 -19.209612 -92.343376)" gradientUnits="userSpaceOnUse" x1="786.339783" x2="1136.339722" y1="1183.226074" y2="577.008301"><stop offset="0" stop-color="#9e9e9e"/><stop offset="1" stop-color="#bdbdbd"/></linearGradient><linearGradient id="k" gradientTransform="matrix(.125012 0 0 .15791 .000001 15.122331)" gradientUnits="userSpaceOnUse" x1="243.416656" x2="243.416656" xlink:href="#h" y1="259.296906" y2="-59.085064"/><path d="m17.199219 56.066406h27.785156v2.648438h-27.785156zm0 0" fill="url(#a)"/><path d="m44.984375 56.066406h5.292969v-2.644531h-5.292969zm0 0" fill="url(#c)"/><path d="m17.199219 56.066406h-5.292969v2.648438h5.292969zm0 0" fill="url(#d)"/><path d="m17.199219 56.066406h-5.292969v-2.644531h5.292969zm0 0" fill="url(#e)"/><path d="m44.984375 56.066406h5.292969v2.648438h-5.292969zm0 0" fill="url(#f)"/><path d="m14.554688 5.792969c-1.46875 0-2.648438 1.179687-2.648438 2.644531v44.984375c0 1.464844 1.179688 2.644531 2.648438 2.644531h33.074218c1.464844 0 2.648438-1.179687 2.648438-2.644531v-35.722656l-11.910156-11.90625zm26.460937 0 9.261719 9.261719v-6.617188c0-1.464844-1.183594-2.644531-2.648438-2.644531zm0 0" fill="url(#g)"/><path d="m41.015625 5.792969 9.261719 9.261719v-6.617188c0-1.464844-1.183594-2.644531-2.648438-2.644531zm0 0" fill="url(#i)"/><path d="m14.554688 5.792969c-1.46875 0-2.648438 1.179687-2.648438 2.644531v.664062c0-1.46875 1.179688-2.648437 2.648438-2.648437h23.8125l11.910156 11.90625v-.660156l-11.910156-11.90625zm26.460937 0 .660156.660156h5.953125c1.464844 0 2.648438 1.179687 2.648438 2.648437v-.664062c0-1.464844-1.183594-2.644531-2.648438-2.644531zm0 0" fill="#fff" fill-opacity=".392157"/><path d="m283.364923-97.443867 39.683711 68.743436 32.090685-18.529481 22.904063-13.217488 13.748687-7.936742c-21.997899-38.090112-70.337033-51.026377-108.427146-29.059725zm-5.811945 21.685429c-38.090112 21.9979-51.026377 70.337034-29.059725 108.427146 21.9979 38.090113 70.337034 51.057624 108.427146 29.059725 38.090113-21.997899 51.057624-70.337033 29.059725-108.427146l-13.748687 7.936742-22.904063 13.217488-32.090685 18.529481zm0 0" fill="url(#j)" stroke="#212121" stroke-linecap="round" stroke-linejoin="round" stroke-width="3" transform="matrix(.125012 0 0 .125012 -8.599779 34.154303)"/><path d="m11.90625 33.574219h38.371094v12.570312h-38.371094zm0 0" fill="url(#k)"/><path d="m11.90625 46.144531v.992188h38.371094v-.992188zm0 0" fill-opacity=".235294"/><path d="m11.90625 33.574219v.996093h38.371094v-.996093zm0 0" fill="#fff" fill-opacity=".392157"/><path d="m11.90625 33.390625c-.101562 0-.1875.082031-.1875.1875v12.566406c0 .105469.085938.1875.1875.1875h38.371094c.101562 0 .1875-.082031.1875-.1875v-12.566406c0-.105469-.085938-.1875-.1875-.1875zm.1875.375h37.996094v12.191406h-37.996094zm0 0" fill="#212121"/><path d="m41.015625 5.792969 9.261719 9.261719v-.984376l-8.28125-8.277343zm-29.109375 46.648437v.980469c0 1.464844 1.179688 2.644531 2.648438 2.644531h33.074218c1.464844 0 2.648438-1.179687 2.648438-2.644531v-.980469c0 1.464844-1.183594 2.644532-2.648438 2.644532h-33.074218c-1.46875 0-2.648438-1.179688-2.648438-2.644532zm0 0" fill-opacity=".235294"/><path d="m14.554688 5.605469c-1.566407 0-2.835938 1.265625-2.835938 2.832031v44.984375c0 1.566406 1.269531 2.832031 2.835938 2.832031h33.074218c1.566406 0 2.835938-1.265625 2.835938-2.832031v-35.722656c0-.050781-.019532-.097657-.054688-.132813l-11.910156-11.90625c-.035156-.035156-.082031-.054687-.132812-.054687zm26.460937 0c-.078125 0-.144531.042969-.175781.113281-.027344.070312-.011719.152344.042968.207031l9.261719 9.261719c.050781.050781.132813.066406.203125.039062.070313-.027343.117188-.097656.117188-.171874v-6.617188c0-1.566406-1.269532-2.832031-2.835938-2.832031zm-26.460937.375h23.734374l11.800782 11.796875v35.644531c0 1.363281-1.09375 2.457031-2.460938 2.457031h-33.074218c-1.367188 0-2.460938-1.09375-2.460938-2.457031v-44.984375c0-1.363281 1.09375-2.457031 2.460938-2.457031zm26.914062 0h6.160156c1.367188 0 2.460938 1.09375 2.460938 2.457031v6.164062zm0 0" fill="#212121"/></svg>

<?xml version="1.0" encoding="UTF-8"?>
<svg xmlns="http://www.w3.org/2000/svg" xmlns:xlink="http://www.w3.org/1999/xlink" width="64px" height="64px" viewBox="0 0 64 64" version="1.1">
<defs>
<linearGradient id="linear0" gradientUnits="userSpaceOnUse" x1="254" y1="233.5" x2="254" y2="254.666672" gradientTransform="matrix(0.125012,0,0,0.125012,-0.00000763012,26.87757)">
<stop offset="0" style="stop-color:rgb(0%,0%,0%);stop-opacity:0.27451;"/>
<stop offset="1" style="stop-color:rgb(0%,0%,0%);stop-opacity:0;"/>
</linearGradient>
<radialGradient id="radial0" gradientUnits="userSpaceOnUse" cx="450.908936" cy="189.579361" fx="450.908936" fy="189.579361" r="21.166656" gradientTransform="matrix(0.000000348341,-0.156265,-0.281277,-0.000000203077,97.64609,127.190665)">
<stop offset="0" style="stop-color:rgb(0%,0%,0%);stop-opacity:0.313726;"/>
<stop offset="0.222222" style="stop-color:rgb(0%,0%,0%);stop-opacity:0.27451;"/>
<stop offset="1" style="stop-color:rgb(0%,0%,0%);stop-opacity:0;"/>
</radialGradient>
<radialGradient id="radial1" gradientUnits="userSpaceOnUse" cx="450.908936" cy="189.579361" fx="450.908936" fy="189.579361" r="21.166656" gradientTransform="matrix(-0.000000348341,0.156265,0.281277,0.000000203077,-35.463065,-15.054958)">
<stop offset="0" style="stop-color:rgb(0%,0%,0%);stop-opacity:0.313726;"/>
<stop offset="0.222222" style="stop-color:rgb(0%,0%,0%);stop-opacity:0.27451;"/>
<stop offset="1" style="stop-color:rgb(0%,0%,0%);stop-opacity:0;"/>
</radialGradient>
<radialGradient id="radial2" gradientUnits="userSpaceOnUse" cx="450.908936" cy="189.579361" fx="450.908936" fy="189.579361" r="21.166656" gradientTransform="matrix(-0.000000348341,-0.156265,0.281277,-0.000000203077,-35.463065,127.190665)">
<stop offset="0" style="stop-color:rgb(0%,0%,0%);stop-opacity:0.313726;"/>
<stop offset="0.222222" style="stop-color:rgb(0%,0%,0%);stop-opacity:0.27451;"/>
<stop offset="1" style="stop-color:rgb(0%,0%,0%);stop-opacity:0;"/>
</radialGradient>
<radialGradient id="radial3" gradientUnits="userSpaceOnUse" cx="450.908936" cy="189.579361" fx="450.908936" fy="189.579361" r="21.166656" gradientTransform="matrix(0.000000348341,0.156265,-0.281277,0.000000203077,97.646086,-15.054959)">
<stop offset="0" style="stop-color:rgb(0%,0%,0%);stop-opacity:0.313726;"/>
<stop offset="0.222222" style="stop-color:rgb(0%,0%,0%);stop-opacity:0.27451;"/>
<stop offset="1" style="stop-color:rgb(0%,0%,0%);stop-opacity:0;"/>
</radialGradient>
<linearGradient id="linear1" gradientUnits="userSpaceOnUse" x1="940" y1="1695.118164" x2="940" y2="175.118118" gradientTransform="matrix(0.0330761,0,0,0.0330761,0,0)">
<stop offset="0" style="stop-color:rgb(93.333334%,93.333334%,93.333334%);stop-opacity:1;"/>
<stop offset="1" style="stop-color:rgb(96.078432%,96.078432%,96.078432%);stop-opacity:1;"/>
</linearGradient>
<linearGradient id="linear2" gradientUnits="userSpaceOnUse" x1="940" y1="1695.118164" x2="940" y2="175.118118" gradientTransform="matrix(0.0330761,0,0,0.0330761,0,0)">
<stop offset="0" style="stop-color:rgb(100%,43.921569%,26.274511%);stop-opacity:1;"/>
<stop offset="1" style="stop-color:rgb(100%,54.11765%,39.607844%);stop-opacity:1;"/>
</linearGradient>
<linearGradient id="linear3" gradientUnits="userSpaceOnUse" x1="786.339783" y1="1183.226074" x2="1136.339722" y2="577.008301" gradientTransform="matrix(0.229136,-0.132292,0.132292,0.229136,-19.209612,-92.343376)">
<stop offset="0" style="stop-color:rgb(61.960787%,61.960787%,61.960787%);stop-opacity:1;"/>
<stop offset="1" style="stop-color:rgb(74.117649%,74.117649%,74.117649%);stop-opacity:1;"/>
</linearGradient>
<linearGradient id="linear4" gradientUnits="userSpaceOnUse" x1="243.416656" y1="259.296906" x2="243.416656" y2="-59.085064" gradientTransform="matrix(0.125012,0,0,0.15791,0.00000127169,15.122331)">
<stop offset="0" style="stop-color:rgb(100%,43.921569%,26.274511%);stop-opacity:1;"/>
<stop offset="1" style="stop-color:rgb(100%,54.11765%,39.607844%);stop-opacity:1;"/>
</linearGradient>
</defs>
<g id="surface1">
<path style=" stroke:none;fill-rule:nonzero;fill:url(#linear0);" d="M 17.199219 56.066406 L 44.984375 56.066406 L 44.984375 58.714844 L 17.199219 58.714844 Z M 17.199219 56.066406 "/>
<path style=" stroke:none;fill-rule:nonzero;fill:url(#radial0);" d="M 44.984375 56.066406 L 50.277344 56.066406 L 50.277344 53.421875 L 44.984375 53.421875 Z M 44.984375 56.066406 "/>
<path style=" stroke:none;fill-rule:nonzero;fill:url(#radial1);" d="M 17.199219 56.066406 L 11.90625 56.066406 L 11.90625 58.714844 L 17.199219 58.714844 Z M 17.199219 56.066406 "/>
<path style=" stroke:none;fill-rule:nonzero;fill:url(#radial2);" d="M 17.199219 56.066406 L 11.90625 56.066406 L 11.90625 53.421875 L 17.199219 53.421875 Z M 17.199219 56.066406 "/>
<path style=" stroke:none;fill-rule:nonzero;fill:url(#radial3);" d="M 44.984375 56.066406 L 50.277344 56.066406 L 50.277344 58.714844 L 44.984375 58.714844 Z M 44.984375 56.066406 "/>
<path style=" stroke:none;fill-rule:nonzero;fill:url(#linear1);" d="M 14.554688 5.792969 C 13.085938 5.792969 11.90625 6.972656 11.90625 8.4375 L 11.90625 53.421875 C 11.90625 54.886719 13.085938 56.066406 14.554688 56.066406 L 47.628906 56.066406 C 49.09375 56.066406 50.277344 54.886719 50.277344 53.421875 L 50.277344 17.699219 L 38.367188 5.792969 Z M 41.015625 5.792969 L 50.277344 15.054688 L 50.277344 8.4375 C 50.277344 6.972656 49.09375 5.792969 47.628906 5.792969 Z M 41.015625 5.792969 "/>
<path style=" stroke:none;fill-rule:nonzero;fill:url(#linear2);" d="M 41.015625 5.792969 L 50.277344 15.054688 L 50.277344 8.4375 C 50.277344 6.972656 49.09375 5.792969 47.628906 5.792969 Z M 41.015625 5.792969 "/>
<path style=" stroke:none;fill-rule:nonzero;fill:rgb(100%,100%,100%);fill-opacity:0.392157;" d="M 14.554688 5.792969 C 13.085938 5.792969 11.90625 6.972656 11.90625 8.4375 L 11.90625 9.101562 C 11.90625 7.632812 13.085938 6.453125 14.554688 6.453125 L 38.367188 6.453125 L 50.277344 18.359375 L 50.277344 17.699219 L 38.367188 5.792969 Z M 41.015625 5.792969 L 41.675781 6.453125 L 47.628906 6.453125 C 49.09375 6.453125 50.277344 7.632812 50.277344 9.101562 L 50.277344 8.4375 C 50.277344 6.972656 49.09375 5.792969 47.628906 5.792969 Z M 41.015625 5.792969 "/>
<path style="fill-rule:nonzero;fill:url(#linear3);stroke-width:3;stroke-linecap:round;stroke-linejoin:round;stroke:rgb(12.941177%,12.941177%,12.941177%);stroke-opacity:1;stroke-miterlimit:4;" d="M 283.364923 -97.443867 L 323.048634 -28.700431 L 355.139319 -47.229912 L 378.043382 -60.4474 L 391.792069 -68.384142 C 369.79417 -106.474254 321.455036 -119.410519 283.364923 -97.443867 Z M 277.552978 -75.758438 C 239.462866 -53.760538 226.526601 -5.421404 248.493253 32.668708 C 270.491153 70.758821 318.830287 83.726332 356.920399 61.728433 C 395.010512 39.730534 407.978023 -8.6086 385.980124 -46.698713 L 372.231437 -38.761971 L 349.327374 -25.544483 L 317.236689 -7.015002 Z M 277.552978 -75.758438 " transform="matrix(0.125012,0,0,0.125012,-8.599779,34.154303)"/>
<path style=" stroke:none;fill-rule:nonzero;fill:url(#linear4);" d="M 11.90625 33.574219 L 50.277344 33.574219 L 50.277344 46.144531 L 11.90625 46.144531 Z M 11.90625 33.574219 "/>
<path style=" stroke:none;fill-rule:nonzero;fill:rgb(0%,0%,0%);fill-opacity:0.235294;" d="M 11.90625 46.144531 L 11.90625 47.136719 L 50.277344 47.136719 L 50.277344 46.144531 Z M 11.90625 46.144531 "/>
<path style=" stroke:none;fill-rule:nonzero;fill:rgb(100%,100%,100%);fill-opacity:0.392157;" d="M 11.90625 33.574219 L 11.90625 34.570312 L 50.277344 34.570312 L 50.277344 33.574219 Z M 11.90625 33.574219 "/>
<path style=" stroke:none;fill-rule:nonzero;fill:rgb(12.941177%,12.941177%,12.941177%);fill-opacity:1;" d="M 11.90625 33.390625 C 11.804688 33.390625 11.71875 33.472656 11.71875 33.578125 L 11.71875 46.144531 C 11.71875 46.25 11.804688 46.332031 11.90625 46.332031 L 50.277344 46.332031 C 50.378906 46.332031 50.464844 46.25 50.464844 46.144531 L 50.464844 33.578125 C 50.464844 33.472656 50.378906 33.390625 50.277344 33.390625 Z M 12.09375 33.765625 L 50.089844 33.765625 L 50.089844 45.957031 L 12.09375 45.957031 Z M 12.09375 33.765625 "/>
<path style=" stroke:none;fill-rule:nonzero;fill:rgb(0%,0%,0%);fill-opacity:0.235294;" d="M 41.015625 5.792969 L 50.277344 15.054688 L 50.277344 14.070312 L 41.996094 5.792969 Z M 11.90625 52.441406 L 11.90625 53.421875 C 11.90625 54.886719 13.085938 56.066406 14.554688 56.066406 L 47.628906 56.066406 C 49.09375 56.066406 50.277344 54.886719 50.277344 53.421875 L 50.277344 52.441406 C 50.277344 53.90625 49.09375 55.085938 47.628906 55.085938 L 14.554688 55.085938 C 13.085938 55.085938 11.90625 53.90625 11.90625 52.441406 Z M 11.90625 52.441406 "/>
<path style=" stroke:none;fill-rule:nonzero;fill:rgb(12.941177%,12.941177%,12.941177%);fill-opacity:1;" d="M 14.554688 5.605469 C 12.988281 5.605469 11.71875 6.871094 11.71875 8.4375 L 11.71875 53.421875 C 11.71875 54.988281 12.988281 56.253906 14.554688 56.253906 L 47.628906 56.253906 C 49.195312 56.253906 50.464844 54.988281 50.464844 53.421875 L 50.464844 17.699219 C 50.464844 17.648438 50.445312 17.601562 50.410156 17.566406 L 38.5 5.660156 C 38.464844 5.625 38.417969 5.605469 38.367188 5.605469 Z M 41.015625 5.605469 C 40.9375 5.605469 40.871094 5.648438 40.839844 5.71875 C 40.8125 5.789062 40.828125 5.871094 40.882812 5.925781 L 50.144531 15.1875 C 50.195312 15.238281 50.277344 15.253906 50.347656 15.226562 C 50.417969 15.199219 50.464844 15.128906 50.464844 15.054688 L 50.464844 8.4375 C 50.464844 6.871094 49.195312 5.605469 47.628906 5.605469 Z M 14.554688 5.980469 L 38.289062 5.980469 L 50.089844 17.777344 L 50.089844 53.421875 C 50.089844 54.785156 48.996094 55.878906 47.628906 55.878906 L 14.554688 55.878906 C 13.1875 55.878906 12.09375 54.785156 12.09375 53.421875 L 12.09375 8.4375 C 12.09375 7.074219 13.1875 5.980469 14.554688 5.980469 Z M 41.46875 5.980469 L 47.628906 5.980469 C 48.996094 5.980469 50.089844 7.074219 50.089844 8.4375 L 50.089844 14.601562 Z M 41.46875 5.980469 "/>
</g>
</svg>
